X: 20573
T: John O'Connor
R: jig
M: 6/8
K: Gmajor
D|"G"G3 "D"FED|"C"E2F "C/E"G2A|"G"B2G "C/G"c2A|"G"B2G "D/F#"cBA|
"G"Bcd "C"E3|"D"FGA "D/F#"D3|"C"GFE "D"AFD|"Gsus"G3 "G"G2:|
G|"G"ded "D/F#"def|"Em"g3 "Em/D"g3|"C"cdB "C/B"cdc|"Am"e3 "C"e3|
"G"dcB "Am"c2A|"G/B"Bcd "G"D3|"C"EFG "D/F#"AFD|"Gsus"G3 "G"G2:|
G|"Em"BGE EGE|"D"AFD DFD|"C"EGE "D"F/G/AG|"D"F3 "D/F#"D3|
"G"Bcd "G/B"dBG|"C"cde "Am7"ecA|"C"GFE "D"AFD|"Gsus"G3 "G"G2:|

